!!!!SEGMENT: pl-cz--d-ii-31--005_elsner-jozef--msza-b-op-80-offertorium.krn
!!!cenid: 18xx:190
!!!COM: Elsner, Józef
!!!COM-rismid: pe30000957
!!!CDT: 1769/06/01-1854/04/18
!!!CNT: Polish
!!!OMD: OFFERTORIUM.
!!!OMD: Quintetto Senza Organo
!!!OMD: Andante.
!!!OPR: Msza B op. 80
!!!OTL: Offertorium
!!!OMV: 005
!!!PDT:
!!!AGN: Sacred; Mass
!!!SMS-siglum: PL-CZ
!!!SMS-shelfmark: D II-31
!!!SMS-shelfwork: 001-005 M
!!!NIFC-rismid:
!!!URL-scan: http://repozytorium.nifc.pl/skany/pl-cz-nut--dii-31
!!!ONB-nifc: UWAGA: części Mszy: Kyrie, Gloria, Graduale Duetto, Credo, Offertorium, Sanctus, Benedictus, Agnus Dei
!!!key:
**kern	**text	**dynam	**kern	**text	**dynam	**kern	**text	**dynam	**kern	**text	**dynam	**kern	**text	**dynam
*part5	*part5	*part5	*part4	*part4	*part4	*part3	*part3	*part3	*part2	*part2	*part2	*part1	*part1	*part1
*staff5	*staff5	*	*staff4	*staff4	*	*staff3	*staff3	*	*staff2	*staff2	*	*staff1	*staff1	*
*Ibass	*	*	*Itenor	*	*	*Itenor	*	*	*Isoprn	*	*	*Isoprn	*	*
*I"Basso	*	*	*I"2o Tenore	*	*	*I"1o Tenore	*	*	*I"2o Soprano	*	*	*I"1o Soprano	*	*
*I'B	*	*	*I'T II	*	*	*I'T I	*	*	*I'S II	*	*	*I'S I	*	*
*clefF4	*	*	*clefC4	*	*	*clefC4	*	*	*clefG2	*	*	*clefG2	*	*
*k[b-e-]	*	*	*k[b-e-]	*	*	*k[b-e-]	*	*	*k[b-e-]	*	*	*k[b-e-]	*	*
*B-:	*	*	*B-:	*	*	*B-:	*	*	*B-:	*	*	*B-:	*	*
*M4/4	*	*	*M4/4	*	*	*M4/4	*	*	*M4/4	*	*	*M4/4	*	*
*met(c)	*	*	*met(c)	*	*	*met(c)	*	*	*met(c)	*	*	*met(c)	*	*
!	!	!	!	!	!	!	!	!	!	!	!	!LO:TX:a:B:t=Andante.	!	!
4F\	U	.	4F/	U	.	4F/	U	.	4f/	U	.	4f/	U	.
=1	=1	=1	=1	=1	=1	=1	=1	=1	=1	=1	=1	=1	=1	=1
2BB-/	nóg	.	2B-\	nóg	.	2B-\	nóg	.	2f/	nóg	.	2dd\	nóg	.
!LO:TX:a:t=P:problem:diminuendolike accent	!	!	!LO:TX:a:t=P:problem:diminuendolike accent	!	!	!LO:TX:a:t=P:problem:diminuendolike accent	!	!	!LO:TX:a:t=P:problem:diminuendolike accent	!	!	!LO:TX:a:t=P:problem:diminuendolike accent	!	!
2E-^\	Swię-	.	(4.G^>/	Swię-	.	(4.B-^\	Swię-	.	(4.g^>/	Swię-	.	2ee-^\	Swię-	.
.	.	.	8A/)	.	.	8c\)	.	.	8g-X/)	.	.	.	.	.
=2	=2	=2	=2	=2	=2	=2	=2	=2	=2	=2	=2	=2	=2	=2
4BB-/	-tych	.	4B-\	-tych	.	4d\	-tych	.	4f/	-tych	.	4dd\	-tych	.
4F\	Oł-	.	4F/	Oł-	.	4f\	Oł-	.	4f/	Oł-	.	4ff\	Oł-	.
4D\	-ta-	.	4d\	-ta-	.	4d\	-ta-	.	4dd\	-ta-	.	4dd\	-ta-	.
4BB-/	-rży	.	4B-\	-rży	.	4B-\	-rży	.	4b-\	-rży	.	4b-/	-rży	.
=3	=3	=3	=3	=3	=3	=3	=3	=3	=3	=3	=3	=3	=3	=3
4FF/	twych	.	4B-\	twych	.	4d\	twych	.	4dd\	twych	.	4ff\	twych	.
4F\	u-	.	4c\	u-	.	4e-\	u-	.	4cc\	u-	.	4ee-\	u-	.
4F\	-po-	.	4d\	-po-	.	4f\	-po-	.	4b-\	-po-	.	4dd\	-po-	.
4F\	-ko-	.	4e-\	-ko-	.	4f\	-ko-	.	4a\	-ko-	.	4cc\	-ko-	.
=4	=4	=4	=4	=4	=4	=4	=4	=4	=4	=4	=4	=4	=4	=4
2BB-/	-rze-	.	2d\	-rze-	.	2f\	-rze-	.	2b-\	-rze-	.	(4.b-\	-rze-	.
.	.	.	.	.	.	.	.	.	.	.	.	8dd\)	.	.
4BB-/	-ni	.	4d\	-ni	.	4f\	-ni	.	8b-/	-ni	.	4f/	-ni	.
.	.	.	.	.	.	.	.	.	8f/	O-	.	.	.	.
4r	.	.	4r	.	.	4e-\	O-	.	8a/	-fia-	.	4r	.	.
.	.	.	.	.	.	.	.	.	8cc/	-ru-	.	.	.	.
=5	=5	=5	=5	=5	=5	=5	=5	=5	=5	=5	=5	=5	=5	=5
2r	.	.	2r	.	.	4d\	-fia-	.	4b-/	-iem	.	8r	.	.
.	.	.	.	.	.	.	.	.	.	.	.	8b-\	O-	.
.	.	.	.	.	.	4B-\	-ru-	.	4b-/	Ci	.	8dd\	-fia-	.
.	.	.	.	.	.	.	.	.	.	.	.	8ff\	-ru-	.
4r	.	.	8r	.	.	4c\	-iem	.	4b-/	Bo-	.	4ee-\	-iem	.
.	.	.	8F/	O-	.	.	.	.	.	.	.	.	.	.
4E-\	O-	.	8A/	-fia-	.	4f\	O-	.	4a/	-że	.	4cc\	ci	.
.	.	.	8c\	-ru-	.	.	.	.	.	.	.	.	.	.
=6	=6	=6	=6	=6	=6	=6	=6	=6	=6	=6	=6	=6	=6	=6
!!LO:LB:g=original
4D/	-fia-	.	4B-\	-iem	.	8f\	-fia-	.	4b-/	dar	.	4.b-\	Bo-	.
.	.	.	.	.	.	8B-\	-ru-	.	.	.	.	.	.	.
4BB-/	-ru-	.	4B-\	ci	.	8d\	-iem	.	4f/	ci	.	.	.	.
.	.	.	.	.	.	8f\	ci	.	.	.	.	8dd\	-że	.
8C/	-iem	.	4B-\	Bo-	.	4e-\	Bo-	.	2f/	dar	.	4cc\	dar	.
8FF/	Ci	.	.	.	.	.	.	.	.	.	.	.	.	.
8AA/	Bo-	.	4A\	-że	.	4c\	-że	.	.	.	.	([4ff\	chle-	.
8C/	-że	.	.	.	.	.	.	.	.	.	.	.	.	.
=7	=7	=7	=7	=7	=7	=7	=7	=7	=7	=7	=7	=7	=7	=7
4BB-/	dar	.	4B-/	dar	.	4d\	dar	.	2f/	chle-	.	4ff\]	.	.
4BB-/	chle-	.	4F/	chle-	.	4B-\	chle-	.	.	.	.	4dd\)	.	.
4AA/	-ba	.	4F/	-ba	.	4c\	-ba	.	4f/	-ba	.	4ee-\	-ba	.
4BB-/	i	.	4F/	i	.	4B-\	i	.	4f/	i	.	4dd\	i	.
=8	=8	=8	=8	=8	=8	=8	=8	=8	=8	=8	=8	=8	=8	=8
2FF/	wi-	.	2F/	wi-	.	(4.A\	wi-	.	2f/	wi-	.	(4.cc\	wi-	.
.	.	.	.	.	.	8B-\)	.	.	.	.	.	8dd\)	.	.
4FF/	-na	.	4F/	-na	.	4A\	-na	.	4f/	-na	.	4cc\	-na	.
4r	.	.	4r	.	.	4r	.	.	4r	.	.	4r	.	.
=9	=9	=9	=9	=9	=9	=9	=9	=9	=9	=9	=9	=9	=9	=9
!	!	!	!	!	!	!	!	!LO:DY:a:rj:problem:z boku na pięciolinii	!	!	!LO:DY:a:rj	!	!	!LO:DY:a:rj
1r	.	.	1r	.	.	2f\	któ-	p	(4a/	któ-	p	(4cc\	któ-	p
.	.	.	.	.	.	.	.	.	4f/)	.	.	4a\)	.	.
.	.	.	.	.	.	4f\	-ry	.	4.b-\	-ry	.	4.dd\	-ry	.
.	.	.	.	.	.	4f\	się	.	.	.	.	.	.	.
.	.	.	.	.	.	.	.	.	8a\	się	.	8cc\	się	.
=10	=10	=10	=10	=10	=10	=10	=10	=10	=10	=10	=10	=10	=10	=10
1r	.	.	1r	.	.	2en\	wkrót-	.	2g/	wkrót-	.	(4.cc\	wkrót-	.
.	.	.	.	.	.	.	.	.	.	.	.	8b-\)	.	.
.	.	.	.	.	.	4f\	-ce	.	4f/	-ce	.	4a/	-ce	.
.	.	.	.	.	.	4r	.	.	4r	.	.	4r	.	.
=11	=11	=11	=11	=11	=11	=11	=11	=11	=11	=11	=11	=11	=11	=11
!	!	!LO:DY:b	!	!	!LO:DY:b	!	!	!LO:DY:b	!	!	!	!	!	!
(4A\	któ-	p	(4c\	któ-	p	2f\	któ-	p	1r	.	.	1r	.	.
4F\)	.	.	4A\)	.	.	.	.	.	.	.	.	.	.	.
4.B-\	-ry	.	4.d\	-ry	.	4f\	-ry	.	.	.	.	.	.	.
.	.	.	.	.	.	4f\	się	.	.	.	.	.	.	.
8A\	się	.	8c\	się	.	.	.	.	.	.	.	.	.	.
=12	=12	=12	=12	=12	=12	=12	=12	=12	=12	=12	=12	=12	=12	=12
2G\	wkrót-	.	(4.c\	wkrót-	.	2en\	wkrót-	.	1r	.	.	1r	.	.
.	.	.	8B-\)	.	.	.	.	.	.	.	.	.	.	.
4F\	-ce	.	4A\	-ce	.	4f\	-ce	.	.	.	.	.	.	.
4r	.	.	4r	.	.	4r	.	.	.	.	.	.	.	.
=13	=13	=13	=13	=13	=13	=13	=13	=13	=13	=13	=13	=13	=13	=13
!!LO:PB:g=original
2D\	Sło-	.	2F/	Sło-	.	2d\	Sło-	.	2a/	Sło-	.	2ff\	Sło-	.
4En\	-wy	.	4G/	-wy	.	4c#X\	-wy	.	4g/	-wy	.	4een\	-wy	.
4F\	ka-	.	4A/	ka-	.	4d\	ka-	.	4f/	ka-	.	4dd\	ka-	.
=14	=14	=14	=14	=14	=14	=14	=14	=14	=14	=14	=14	=14	=14	=14
2G\	-pła-	.	2A/	-pła-	.	2en\	-pła-	.	2a/	-pła-	.	2cc#X\	-pła-	.
4F\	-na	.	4A/	-na	.	4d\	-na	.	4a/	-na	.	4dd\	-na	.
4D\	za-	.	4A/	za-	.	4d\	za-	.	4f/	za-	.	4dd\	za-	.
=15	=15	=15	=15	=15	=15	=15	=15	=15	=15	=15	=15	=15	=15	=15
2BB-/	-mie-	.	(4B-\	-mie-	.	2d\	-mie-	.	(>4f/	-mie-	.	2dd\	-mie-	.
.	.	.	4A\)	.	.	.	.	.	4f#X/)	.	.	.	.	.
4BB-/	-ni	.	4G\	-ni	.	4d\	-ni	.	4g/	-ni	.	4dd\	-ni	.
4BB-/	w praw-	.	4F/	w praw-	.	4d\	w praw-	.	4g#X/	w praw-	.	4dd\	w praw-	.
=16	=16	=16	=16	=16	=16	=16	=16	=16	=16	=16	=16	=16	=16	=16
4.AA/	-dzi-	.	4.A\	-dzi-	.	4.en\	-dzi-	.	4.a/	-dzi-	.	(4.cc#X\	-dzi-	.
8AA/	-wą	.	8A\	-wą	.	8f\	-wą	.	8a/	-wą	.	8dd\)	-wą	.
4AA/	krew	.	4A\	krew	.	4e\	krew	.	4a/	krew	.	4cc#\	krew	.
4AA/	i	.	4A\	i	.	4c#X\	i	.	4g/	i	.	4een\	i	.
=17	=17	=17	=17	=17	=17	=17	=17	=17	=17	=17	=17	=17	=17	=17
2BB-/	cia-	.	2d\	cia-	.	2d\	cia-	.	2f/	cia-	.	2dd\	cia-	.
2BB-/	-ło	.	2B-\	-ło	.	2d\	-ło	.	2f/	-ło	.	2ff\	-ło	.
=18	=18	=18	=18	=18	=18	=18	=18	=18	=18	=18	=18	=18	=18	=18
4BB-/	Bo-	.	4B-\	Bo-	.	4c#X\	Bo-	.	4g/	Bo-	.	4een\	Bo-	.
4BB-/	-ga	.	4B-\	-ga	.	4d\	-ga	.	4f/	-ga	.	4ff\	-ga	.
4BB-/	twe-	.	4B-\	twe-	.	4f\	twe-	.	4f/	twe-	.	4dd\	twe-	.
4BB-/	-go	.	4d\	-go	.	4d\	-go	.	4f/	-go	.	4b-\	-go	.
=19	=19	=19	=19	=19	=19	=19	=19	=19	=19	=19	=19	=19	=19	=19
!	!	!	!LO:TX:a:t=P:problem:niejednoznaczny zapis łuku	!	!	!	!	!	!	!	!	!	!	!
1C	Sy-	.	(2A\	Sy-	.	1c	Sy-	.	(>2f/	Sy-	.	(>2a/	Sy-	.
.	.	.	4.B-\	.	.	.	.	.	4.en/	.	.	4.g/	.	.
.	.	.	8A\)	.	.	.	.	.	8f/)	.	.	8a/)	.	.
=20	=20	=20	=20	=20	=20	=20	=20	=20	=20	=20	=20	=20	=20	=20
2F\	-na	.	2A\	-na	.	2c\	-na	.	2f/	-na	.	2f/	-na	.
4r	.	.	4r	.	.	4r	.	.	4r	.	.	4r	.	.
4F\	z głę-	.	4F/	z głę-	.	4F/	z głę-	.	4f/	z głę-	.	4f/	z głę-	.
=21	=21	=21	=21	=21	=21	=21	=21	=21	=21	=21	=21	=21	=21	=21
2BB-/	-bo-	.	2B-\	-bo-	.	2B-\	-bo-	.	2f/	-bo-	.	2dd\	-bo-	.
!	!	!	!LO:TX:a:t=P:problem:diminuendolike accent	!	!	!LO:TX:a:t=P:problem:diminuendolike accent	!	!	!LO:TX:a:t=P:problem:diminuendolike accent	!	!	!	!	!
2E-^\	-kiem	.	(4.G^\	-kiem	.	(4.B-^\	-kiem	.	(4.g^>/	-kiem	.	2ee-^\	-kiem	.
.	.	.	8A\)	.	.	8c\)	.	.	8g-X/)	.	.	.	.	.
=22	=22	=22	=22	=22	=22	=22	=22	=22	=22	=22	=22	=22	=22	=22
!!LO:LB:g=original
4BB-/	ta-	.	4B-\	ta-	.	4d\	ta-	.	4f/	ta-	.	4dd\	ta-	.
4F\	-jem-	.	4F/	-jem-	.	4f\	-jem-	.	4f/	-jem-	.	4ff\	-jem-	.
4D\	-ni-	.	4d\	-ni-	.	4d\	-ni-	.	4dd\	-ni-	.	4dd\	-ni-	.
4BB-/	-cę	.	4B-\	-cę	.	4B-\	-cę	.	4b-\	-cę	.	4b-\	-cę	.
=23	=23	=23	=23	=23	=23	=23	=23	=23	=23	=23	=23	=23	=23	=23
4FF/	te	.	4B-\	te	.	4d\	te	.	4dd\	te	.	4ff\	te	.
4F\	Swię-	.	4c\	Swię-	.	4e-\	Swię-	.	4cc\	Swię-	.	4ee-\	Swię-	.
4F\	-cim	.	4d\	-cim	.	4f\	-cim	.	4b-\	-cim	.	4dd\	-cim	.
4F\	ucz-	.	4e-\	ucz-	.	4f\	ucz-	.	4a/	ucz-	.	4cc\	ucz-	.
=24	=24	=24	=24	=24	=24	=24	=24	=24	=24	=24	=24	=24	=24	=24
2BB-/	-cze-	.	2d\	-cze-	.	2f\	-cze-	.	2b-\	-cze-	.	(4.b-\	-cze-	.
.	.	.	.	.	.	.	.	.	.	.	.	8dd\)	.	.
4BB-/	-niem	.	4d\	-niem	.	4f\	-niem	.	4b-\	-niem	.	4f/	-niem	.
!	!	!LO:DY:a:problem:na pięciolinii	!	!	!LO:DY:a:problem:na pięciolinii	!	!	!LO:DY:a:problem:na pięciolinii	!	!	!LO:DY:a:problem:na pięciolinii	!	!	!LO:DY:a
.	.	f	.	.	f	.	.	f	.	.	f	.	.	f
8AA-X/	któ-	.	8B-\	któ-	.	8f\	któ-	.	8b-\	któ-	.	8dd\	któ-	.
8AA-/	-re	.	8B-\	-re	.	8f\	-re	.	8b-\	-re	.	8dd\	-re	.
=25	=25	=25	=25	=25	=25	=25	=25	=25	=25	=25	=25	=25	=25	=25
2GG/	w no-	.	2B-\	w no-	.	2e-\	w no-	.	2b-\	w no-	.	2ee-\	w no-	.
4GG/	-wym	.	4B-\	-wym	.	4e-\	-wym	.	4b-\	-wym	.	4ee-\	-wym	.
4C/	za-	.	4A\	za-	.	4e-\	za-	.	8g-X/L	za-	.	4ee-\	za-	.
.	.	.	.	.	.	.	.	.	8f/J	.	.	.	.	.
=26	=26	=26	=26	=26	=26	=26	=26	=26	=26	=26	=26	=26	=26	=26
2BB-/	-ko-	.	2B-\	-ko-	.	(4.B-\	-ko-	.	2f/	-ko-	.	(4.dd\	-ko-	.
.	.	.	.	.	.	8d\)	.	.	.	.	.	8ff\)	.	.
4BB-/	-nie	.	4B-\	-nie	.	4d\	-nie	.	4f/	-nie	.	4b-\	-nie	.
!	!	!LO:DY:a:problem:na pięciolinii	!	!	!LO:DY:a:problem:na pięciolinii	!	!	!LO:DY:a:problem:na pięciolinii	!	!	!LO:DY:a:problem:na pięciolinii	!	!	!LO:DY:a
.	.	p	.	.	p	.	.	p	.	.	p	.	.	p
8AA-X/	speł-	.	8B-\	speł-	.	8f\	speł-	.	8b-/	speł-	.	8dd\	speł-	.
8AA-/	-nia	.	8B-\	-nia	.	8f\	-nia	.	8b-/	-nia	.	8dd\	-nia	.
=27	=27	=27	=27	=27	=27	=27	=27	=27	=27	=27	=27	=27	=27	=27
2.GG/	za-	.	2.B-\	za-	.	2.e-\	za-	.	2.b-/	za-	.	2.ee-\	za-	.
4C/	-kon	.	4An\	-kon	.	4e-\	-kon	.	8g-X/L	-kon	.	4ee-\	-kon	.
.	.	.	.	.	.	.	.	.	8f/J	.	.	.	.	.
=28	=28	=28	=28	=28	=28	=28	=28	=28	=28	=28	=28	=28	=28	=28
2BB-/	sta-	.	2B-\	sta-	.	(4.B-\	sta-	.	2f/	sta-	.	(4.dd\	sta-	.
.	.	.	.	.	.	8d\)	.	.	.	.	.	8ff\)	.	.
4BB-/	-ry	.	4B-\	-ry	.	4d\	-ry	.	4f/	-ry	.	4b-\	-ry	.
!	!	!LO:DY:a:problem:na pięciolinii	!	!	!LO:DY:a:problem:na pięciolinii	!	!	!LO:DY:a	!	!	!LO:DY:a:problem:na pięciolinii	!	!	!LO:DY:a
.	.	f	.	.	f	.	.	f	.	.	f	.	.	f
8A-X\	ta-	.	8B-\	ta-	.	8f\	ta-	.	8b-/	ta-	.	8dd\	ta-	.
8A-\	-jem-	.	8B-\	-jem-	.	8f\	-jem-	.	8b-/	-jem-	.	8dd\	-jem-	.
=29	=29	=29	=29	=29	=29	=29	=29	=29	=29	=29	=29	=29	=29	=29
(4.G\	-ni-	.	2B-\	-ni-	.	2e-\	-ni-	.	(>4.b-/	-ni-	.	(4.ee-\	-ni-	.
8E-\)	.	.	.	.	.	.	.	.	8g/)	.	.	8gg\)	.	.
4E-\	-cę	.	4B-\	-cę	.	4e-\	-cę	.	4g/	-cę	.	4b-/	-cę	.
4E-\	co	.	4B-\	co	.	4e-\	co	.	4b-/	co	.	4gg\	co	.
=30	=30	=30	=30	=30	=30	=30	=30	=30	=30	=30	=30	=30	=30	=30
4B-\	grun-	.	4B-\	grun-	.	4d\	grun-	.	4b-\	grun-	.	4ff\	grun-	.
4B-\	-tem	.	4B-\	-tem	.	4c\	-tem	.	4cc\	-tem	.	4ee-\	-tem	.
4B-\	iest	.	4B-\	iest	.	4B-\	iest	.	4dd\	iest	.	4dd\	iest	.
4B-\	Chry-	.	4B-\	Chry-	.	4c\	Chry-	.	4cc\	Chry-	.	4ee-\	Chry-	.
=31	=31	=31	=31	=31	=31	=31	=31	=31	=31	=31	=31	=31	=31	=31
!!LO:PB:g=original
2BB-/	-stu-	.	2B-\	-stu-	.	2d\	-stu-	.	2b-/	-stu-	.	2ff\	-stu-	.
2BB-/	-sa	.	2B-\	-sa	.	2B-\	-sa	.	2f/	-sa	.	2dd\	-sa	.
=32	=32	=32	=32	=32	=32	=32	=32	=32	=32	=32	=32	=32	=32	=32
2F\	wia-	.	2F/	wia-	.	(4.A\	wia-	.	2f/	wia-	.	(4.cc\	wia-	.
.	.	.	.	.	.	8B-\)	.	.	.	.	.	8dd\)	.	.
4F\	-ry	.	4F/	-ry	.	4A\	-ry	.	8f/	-ry	.	4cc\	-ry	.
!	!	!	!	!	!	!	!	!	!LO:TX:a:Bi:t=dol	!	!LO:DY:a	!	!	!
.	.	.	.	.	.	.	.	.	8f/	Rę-	???	.	.	.
!	!	!	!	!	!	!LO:TX:a:Bi:t=dol	!	!	!	!	!	!	!	!
4r	.	.	4r	.	.	4e-\	Rę-	.	8a/	-koy-	.	4r	.	.
.	.	.	.	.	.	.	.	.	8cc/	-mią	.	.	.	.
=33	=33	=33	=33	=33	=33	=33	=33	=33	=33	=33	=33	=33	=33	=33
2r	.	.	2r	.	.	4d\	-koy-	.	4b-\	łas-	.	8r	.	.
!	!	!	!	!	!	!	!	!	!	!	!	!LO:TX:a:Bi:t=dol	!	!
.	.	.	.	.	.	.	.	.	.	.	.	8b-\	Rę-	.
.	.	.	.	.	.	4B-\	-mią	.	4b-\	-ki	.	8dd\	-koy-	.
.	.	.	.	.	.	.	.	.	.	.	.	8ff\	-mią	.
4r	.	.	8r	.	.	(4c\	łas-	.	(4b-\	Nie-	.	(4ee-\	łas-	.
!	!	!	!LO:TX:a:Bi:t=dol&colon;	!	!	!	!	!	!	!	!	!	!	!
.	.	.	8F/	Rę-	.	.	.	.	.	.	.	.	.	.
!LO:TX:a:Bi:t=dol	!	!	!	!	!	!	!	!	!	!	!	!	!	!
4E-\	Rę-	.	8A/	-koy-	.	4f\)	.	.	4a\)	.	.	4cc\)	-ki	.
.	.	.	8c\	-mią	.	.	.	.	.	.	.	.	.	.
=34	=34	=34	=34	=34	=34	=34	=34	=34	=34	=34	=34	=34	=34	=34
4D/	-koy-	.	4B-\	łas-	.	8f\	-ki	.	4b-/	-bios	.	(4.b-\	Nie-	.
.	.	.	.	.	.	8B-\	Rę-	.	.	.	.	.	.	.
4BB-/	-mią	.	4B-\	-ki	.	8d\	-koy-	.	4f/	i	.	.	.	.
.	.	.	.	.	.	8f\	-mią	.	.	.	.	8dd\)	.	.
8C/	łas-	.	(4B-\	Nie-	.	4e-\	łas-	.	[2f/	Swia-	.	4cc\	-bios	.
8FF/	-ki	.	.	.	.	.	.	.	.	.	.	.	.	.
8AA/	Nie-	.	4A\)	.	.	4c\	-ki	.	.	.	.	([4ff\	i	.
8C/	-bios	.	.	.	.	.	.	.	.	.	.	.	.	.
=35	=35	=35	=35	=35	=35	=35	=35	=35	=35	=35	=35	=35	=35	=35
4BB-/	i	.	4B-\	-bios	.	4d\	i	.	2f/]	.	.	4ff\]	Swia-	.
4BB-/	Swia-	.	4F/	i	.	4B-\	Swia-	.	.	.	.	4dd\)	.	.
4AA/	-ta	.	4F/	Swia-	.	4c\	-ta	.	4f/	-ta	.	4ee-\	-ta	.
4BB-/	i	.	4F/	-ta	.	4B-\	i	.	4f/	i	.	4dd\	i	.
=36	=36	=36	=36	=36	=36	=36	=36	=36	=36	=36	=36	=36	=36	=36
2E-\	Swia-	.	2E-/	Swia-	.	2G/	Swia-	.	2g/	Swia-	.	(4dd\	Swia-	.
.	.	.	.	.	.	.	.	.	.	.	.	4cc\)	.	.
4E-\	-ta	.	4G/	-ta	.	4c\	-ta	.	4g/	-ta	.	4ee-\	-ta	.
4E-\	zba-	.	4c\	zba-	.	4e-\	zba-	.	4g/	zba-	.	4cc\	zba-	.
=37	=37	=37	=37	=37	=37	=37	=37	=37	=37	=37	=37	=37	=37	=37
1F	-wie-	.	1F	-wie-	.	2d\	-wie-	.	2.f/	-wie-	.	2b-\	-wie-	.
.	.	.	.	.	.	2c\	.	.	.	.	.	2a/	.	.
.	.	.	.	.	.	.	.	.	4e-/	.	.	.	.	.
=38	=38	=38	=38	=38	=38	=38	=38	=38	=38	=38	=38	=38	=38	=38
2.BB-/	-niem	.	2.F/	-niem	.	2c\	.	.	2e-/	.	.	2a/	.	.
.	.	.	.	.	.	4B-\	-niem	.	8d/	-niem	.	4b-/	-niem	.
.	.	.	.	.	.	.	.	.	8f/	Rę-	.	.	.	.
4r	.	.	4r	.	.	4e-\	Rę-	.	8a/	-koy-	.	4r	.	.
.	.	.	.	.	.	.	.	.	8cc/	-mią	.	.	.	.
=39	=39	=39	=39	=39	=39	=39	=39	=39	=39	=39	=39	=39	=39	=39
!!LO:LB:g=original
2r	.	.	2r	.	.	4d\	-koy-	.	4b-\	łas-	.	8r	.	.
.	.	.	.	.	.	.	.	.	.	.	.	8b-\	Rę-	.
.	.	.	.	.	.	4B-\	-mą	.	4b-\	-ki	.	8dd\	-koy-	.
.	.	.	.	.	.	.	.	.	.	.	.	8ff\	-mią	.
4r	.	.	8r	.	.	(4c\	łas-	.	(4b-\	Nie-	.	4ee-\	łas-	.
.	.	.	8F/	Rę-	.	.	.	.	.	.	.	.	.	.
4E-\	Rę-	.	8A/	-koy-	.	[4f\)	.	.	4a\)	.	.	4cc\	-ki	.
.	.	.	8c\	-mią	.	.	.	.	.	.	.	.	.	.
=40	=40	=40	=40	=40	=40	=40	=40	=40	=40	=40	=40	=40	=40	=40
4D/	-koy-	.	4B-\	łas-	.	8f\]	-ki	.	4b-/	-bios	.	(4.b-\	Nie-	.
.	.	.	.	.	.	8B-\	Rę-	.	.	.	.	.	.	.
4BB-/	-mią	.	4B-\	-ki	.	8d\	-koy-	.	4f/	i	.	.	.	.
.	.	.	.	.	.	8f\	-mią	.	.	.	.	8dd\)	.	.
8C/	łas-	.	(4B-\	Nie-	.	4e-\	łas-	.	[2f/	Swia-	.	4cc\	-bios	.
8FF/	-ki	.	.	.	.	.	.	.	.	.	.	.	.	.
8AA/	Nie-	.	4A\)	.	.	4c\	-ki	.	.	.	.	4ff\	i	.
8C/	-bios	.	.	.	.	.	.	.	.	.	.	.	.	.
=41	=41	=41	=41	=41	=41	=41	=41	=41	=41	=41	=41	=41	=41	=41
!	!	!	!	!	!	!	!	!	!	!	!	!LO:TX:a:t=P:problem:niejednoznaczny zapis łuku	!	!
4BB-/	i	.	4B-\	-bios	.	4d\	i	.	2f/]	.	.	(4ff\	Swia-	.
4BB-/	Swia-	.	4F/	i	.	4B-\	Swia-	.	.	.	.	4dd\)	.	.
4AA/	-ta	.	4F/	Swia-	.	4c\	-ta	.	4f/	-ta	.	4ee-\	-ta	.
4BB-/	i	.	4F/	-ta	.	4B-\	i	.	4f/	i	.	(4dd\	i	.
=42	=42	=42	=42	=42	=42	=42	=42	=42	=42	=42	=42	=42	=42	=42
2E-\	Swia-	.	2E-/	Swia-	.	2G/	Swia-	.	2g/	Swia-	.	4dd\	Swia-	.
.	.	.	.	.	.	.	.	.	.	.	.	(>4cc\)	.	.
4E-\	-ta	.	4G/	-ta	.	4c\	-ta	.	4g/	-ta	.	4ee-\	-ta	.
4E-\	zba-	.	4c\	zba-	.	4e-\	zba-	.	4g/	zba-	.	4cc\	zba-	.
=43	=43	=43	=43	=43	=43	=43	=43	=43	=43	=43	=43	=43	=43	=43
2E-\	-wie-	.	(4c\	-wie-	.	2.e-\	-wie-	.	(4a/	-wie-	.	4ff#X\	-wie-	.
.	.	.	2B-\)	.	.	.	.	.	4b-/)	.	.	4gg\	.	.
2E-\	-niem	.	.	.	.	.	.	.	2g/	-niem	.	4ee-\	.	.
.	.	.	4c\	-niem	.	4e-\	-niem	.	.	.	.	4cc\)	-niem	.
=44	=44	=44	=44	=44	=44	=44	=44	=44	=44	=44	=44	=44	=44	=44
2F\	Swia-	.	2d\	Swia-	.	2d\	Swia-	.	2f/	Swia-	.	2b-\	Swia-	.
4F\	-ta	.	4B-\	-ta	.	4d\	-ta	.	4f/	-ta	.	4f/	-ta	.
4F\	zba-	.	4B-\	zba-	.	4d\	zba-	.	4f/	zba-	.	4dd\	zba-	.
=45	=45	=45	=45	=45	=45	=45	=45	=45	=45	=45	=45	=45	=45	=45
1F	-wie-	.	(2B-\	-wie-	.	(2d\	-wie-	.	1f	-wie-	.	(2dd\	-wie-	.
!	!	!	!	!	!	!LO:TX:a:t=P:problem:niejednoznaczne zakończenie łuku	!	!	!	!	!	!	!	!
.	.	.	2A\	.	.	2e-\)	.	.	.	.	.	(4.dd\	.	.
.	.	.	.	.	.	.	.	.	.	.	.	8cc\))	.	.
=46	=46	=46	=46	=46	=46	=46	=46	=46	=46	=46	=46	=46	=46	=46
2.BB-/	-niem.	.	2.B-\)	-niem.	.	2.d\	-niem.	.	2.f/	-niem.	.	2.b-\	-niem.	.
==	==	==	==	==	==	==	==	==	==	==	==	==	==	==
*-	*-	*-	*-	*-	*-	*-	*-	*-	*-	*-	*-	*-	*-	*-
!!!system-decoration: s1,s2,s3,s4,s5
!!!RDF**kern: > = above
!!!RDF**kern: < = below
!!!AIN: 1 bass 2 soprn 2 tenor
!!!ENC: Andrzej Kubiczek
!!!END: 2020-03-03
!!!ENC: Marta Lawrence
!!!END: 2020-04-03
